_site/images/contact/contact-us.svg

<svg height="386" viewBox="0 0 485 386" width="485" xmlns="http://www.w3.org/2000/svg" xmlns:xlink="http://www.w3.org/1999/xlink"><defs><path id="a" d="m10 0h221c5.522847 0 10 4.4771525 10 10v142c0 5.522847-4.477153 10-10 10h-221c-5.5228475 0-10-4.477153-10-10v-142c0-5.5228475 4.4771525-10 10-10z"/><filter id="b" height="169.1%" width="146.5%" x="-23.2%" y="-28.4%"><feOffset dx="0" dy="10" in="SourceAlpha" result="shadowOffsetOuter1"/><feGaussianBlur in="shadowOffsetOuter1" result="shadowBlurOuter1" stdDeviation="17"/><feColorMatrix in="shadowBlurOuter1" type="matrix" values="0 0 0 0 0.2   0 0 0 0 0.2   0 0 0 0 0.2  0 0 0 0.5 0"/></filter><path id="c" d="m10 0h257c5.522847 0 10 4.4771525 10 10v166c0 5.522847-4.477153 10-10 10h-257c-5.5228475 0-10-4.477153-10-10v-166c0-5.5228475 4.4771525-10 10-10z"/><filter id="d" height="160.2%" width="140.4%" x="-20.2%" y="-24.7%"><feOffset dx="0" dy="10" in="SourceAlpha" result="shadowOffsetOuter1"/><feGaussianBlur in="shadowOffsetOuter1" result="shadowBlurOuter1" stdDeviation="17"/><feColorMatrix in="shadowBlurOuter1" type="matrix" values="0 0 0 0 0.2   0 0 0 0 0.2   0 0 0 0 0.2  0 0 0 0.5 0"/></filter><path id="e" d="m10 0h50c5.5228475 0 10 4.4771525 10 10v40c0 5.5228475-4.4771525 10-10 10h-50c-5.5228475 0-10-4.4771525-10-10v-40c0-5.5228475 4.4771525-10 10-10z"/><filter id="f" height="286.7%" width="260%" x="-80%" y="-76.7%"><feOffset dx="0" dy="10" in="SourceAlpha" result="shadowOffsetOuter1"/><feGaussianBlur in="shadowOffsetOuter1" result="shadowBlurOuter1" stdDeviation="17"/><feColorMatrix in="shadowBlurOuter1" type="matrix" values="0 0 0 0 0.2   0 0 0 0 0.2   0 0 0 0 0.2  0 0 0 0.5 0"/></filter><mask id="g" fill="#fff"><path d="m10 0h221c5.522847 0 10 4.4771525 10 10v142c0 5.522847-4.477153 10-10 10h-221c-5.5228475 0-10-4.477153-10-10v-142c0-5.5228475 4.4771525-10 10-10z" fill="#fff" fill-rule="evenodd"/></mask><mask id="h" fill="#fff"><path d="m10 0h257c5.522847 0 10 4.4771525 10 10v166c0 5.522847-4.477153 10-10 10h-257c-5.5228475 0-10-4.477153-10-10v-166c0-5.5228475 4.4771525-10 10-10z" fill="#fff" fill-rule="evenodd"/></mask></defs><g fill="none" fill-rule="evenodd"><g transform="translate(34 180)"><use fill="#000" filter="url(#b)" xlink:href="#a"/><use fill="#fff" fill-rule="evenodd" xlink:href="#a"/></g><g transform="translate(34 180)"><g fill="#0b7a76" fill-opacity=".27" fill-rule="nonzero" mask="url(#g)"><path d="m51 0c-20.2488412.03843959-38.5645918 12.020461-46.69697233 30.5487957-8.13238053 18.5283346-4.54689603 40.10688 9.14138193 55.0156397 9.6732769 10.4765985 23.2896323 16.4355646 37.5555904 16.4355646s27.8823135-5.9589661 37.5555904-16.4355646c13.6882776-14.9087597 17.2737626-36.4873051 9.1413819-55.0156397-8.1323805-18.5283347-26.4481311-30.51035611-46.6969723-30.5487957zm0 91.8949783c-10.5847235-.0160731-20.7505364-4.133858-28.358303-11.4868723 4.723998-11.490461 15.9256532-18.9926365 28.358303-18.9926365s23.634305 7.5021755 28.358303 18.9926365c-7.6077666 7.3530143-17.7735795 11.4707992-28.358303 11.4868723zm-10.2192083-51.0527657c0-5.6391328 4.5752954-10.2105532 10.2192083-10.2105532s10.2192083 4.5714204 10.2192083 10.2105532-4.5752954 10.2105531-10.2192083 10.2105531-10.2192083-4.5714203-10.2192083-10.2105531zm45.5265729 30.6316594c-4.5652715-7.8020929-11.591638-13.870892-19.9785522-17.2558348 7.2465852-8.209896 6.7253652-20.6686363-1.1816761-28.2456433-7.9070413-7.5770069-20.3872313-7.5770069-28.2942726 0-7.9070413 7.577007-8.4282613 20.0357473-1.1816761 28.2456433-8.3869142 3.3849428-15.4132807 9.4537419-19.9785522 17.2558348-3.6383255-6.1921795-5.5606797-13.2407157-5.5694685-20.4211063 0-22.5565311 18.3011815-40.8422126 40.8768331-40.8422126s40.8768331 18.2856815 40.8768331 40.8422126c-.0087888 7.1803906-1.931143 14.2289268-5.5694685 20.4211063z" transform="translate(70 74)"/></g><g fill="#e1e8ee"><path d="m37.5 23h166c2.485281 0 4.5 2.0147186 4.5 4.5 0 2.4852814-2.014719 4.5-4.5 4.5h-166c-2.4852814 0-4.5-2.0147186-4.5-4.5 0-2.4852814 2.0147186-4.5 4.5-4.5z" mask="url(#g)"/><rect height="9" mask="url(#g)" rx="4.5" width="175" x="33" y="42"/></g></g><g transform="translate(174 31)"><use fill="#000" filter="url(#d)" xlink:href="#c"/><use fill="#fff" fill-rule="evenodd" xlink:href="#c"/></g><g fill="#0b7a76" fill-opacity=".27" fill-rule="nonzero" mask="url(#h)" transform="translate(174 31)"><path d="m183.233778 169.429586c12.467671-16.69491 16.67765-38.139869 11.445654-58.302335-5.231996-20.1624654-19.340602-36.8637017-38.357018-45.405592-5.601816-32.1963735-30.586168-57.55708777-62.7221393-63.66697941-32.1359709-6.10989164-64.6991953 8.30951761-81.7485705 36.19930511-17.04937526 27.8897875-15.01736559 63.4140903 5.1012726 89.1822303l-13.65211539 13.539919c-2.78684424 2.821412-3.60059054 7.040786-2.0625498 10.694573 1.50667886 3.663878 5.0709075 6.063381 9.03593249 6.083152h55.8852781c11.3587722 23.921843 35.4708328 39.19106 61.9747108 39.246141h58.929994c3.965025-.019772 7.529254-2.419274 9.035933-6.083152 1.538041-3.653787.724294-7.873161-2.06255-10.694573zm-123.8512052-41.110332c.0134914 3.285641.2761542 6.565539.7857333 9.811535h-26.2238476l3.437583-3.335922c1.8593656-1.842279 2.9052323-4.350067 2.9052323-6.96619 0-2.616124-1.0458667-5.123912-2.9052323-6.96619-11.1194463-10.986116-17.3488823-25.9779145-17.2861317-41.6009095 0-32.5125676 26.3838572-58.8692112 58.9299945-58.8692112 25.0054567-.1501137 47.3259507 15.6357067 55.4924117 39.2461408-2.160767 0-4.223317 0-6.384083 0-37.9704935 0-68.7516602 30.7494176-68.7516602 68.6807469zm103.5203572 49.057676.491083.490576h-35.25978c-23.425864-.041794-43.5606716-16.606954-48.092809-39.566559-4.5321375-22.959605 7.800384-45.9204758 29.456731-54.8429768 21.656346-8.922501 46.606235-1.3221315 59.593827 18.1537928 12.987592 19.475924 10.396449 45.404266-6.189052 61.930902-1.850542 1.811508-2.9096 4.280093-2.9465 6.868075.010896 2.622092 1.071979 5.130732 2.9465 6.96619z" transform="translate(83.6639 15.333333)"/></g><g transform="translate(61 24)"><use fill="#000" filter="url(#f)" xlink:href="#e"/><use fill="#fff" fill-rule="evenodd" xlink:href="#e"/></g><g fill="#e1e8ee" transform="translate(66 29)"><path d="m12 7h31c2.209139 0 4 1.790861 4 4 0 2.209139-1.790861 4-4 4h-31c-2.209139 0-4-1.790861-4-4 0-2.209139 1.790861-4 4-4z"/><path d="m12 35h13c2.209139 0 4 1.790861 4 4 0 2.209139-1.790861 4-4 4h-13c-2.209139 0-4-1.790861-4-4 0-2.209139 1.790861-4 4-4z"/><rect height="8" rx="4" width="46" x="8" y="21"/></g></g></svg>

<?xml version="1.0" encoding="UTF-8"?>
<svg width="485px" height="386px" viewBox="0 0 485 386" version="1.1" xmlns="http://www.w3.org/2000/svg" xmlns:xlink="http://www.w3.org/1999/xlink">
    <!-- Generator: Sketch 52.6 (67491) - http://www.bohemiancoding.com/sketch -->
    <title>Group 9</title>
    <desc>Created with Sketch.</desc>
    <defs>
        <path d="M10,0 L231,0 C236.522847,-1.01453063e-15 241,4.4771525 241,10 L241,152 C241,157.522847 236.522847,162 231,162 L10,162 C4.4771525,162 6.76353751e-16,157.522847 0,152 L0,10 C-6.76353751e-16,4.4771525 4.4771525,1.01453063e-15 10,0 Z" id="path-1"></path>
        <filter x="-23.2%" y="-28.4%" width="146.5%" height="169.1%" filterUnits="objectBoundingBox" id="filter-2">
            <feOffset dx="0" dy="10" in="SourceAlpha" result="shadowOffsetOuter1"></feOffset>
            <feGaussianBlur stdDeviation="17" in="shadowOffsetOuter1" result="shadowBlurOuter1"></feGaussianBlur>
            <feColorMatrix values="0 0 0 0 0.2   0 0 0 0 0.2   0 0 0 0 0.2  0 0 0 0.5 0" type="matrix" in="shadowBlurOuter1"></feColorMatrix>
        </filter>
        <path d="M10,0 L231,0 C236.522847,-1.01453063e-15 241,4.4771525 241,10 L241,152 C241,157.522847 236.522847,162 231,162 L10,162 C4.4771525,162 6.76353751e-16,157.522847 0,152 L0,10 C-6.76353751e-16,4.4771525 4.4771525,1.01453063e-15 10,0 Z" id="path-3"></path>
        <path d="M10,0 L267,0 C272.522847,-1.01453063e-15 277,4.4771525 277,10 L277,176 C277,181.522847 272.522847,186 267,186 L10,186 C4.4771525,186 6.76353751e-16,181.522847 0,176 L0,10 C-6.76353751e-16,4.4771525 4.4771525,1.01453063e-15 10,0 Z" id="path-5"></path>
        <filter x="-20.2%" y="-24.7%" width="140.4%" height="160.2%" filterUnits="objectBoundingBox" id="filter-6">
            <feOffset dx="0" dy="10" in="SourceAlpha" result="shadowOffsetOuter1"></feOffset>
            <feGaussianBlur stdDeviation="17" in="shadowOffsetOuter1" result="shadowBlurOuter1"></feGaussianBlur>
            <feColorMatrix values="0 0 0 0 0.2   0 0 0 0 0.2   0 0 0 0 0.2  0 0 0 0.5 0" type="matrix" in="shadowBlurOuter1"></feColorMatrix>
        </filter>
        <path d="M10,0 L267,0 C272.522847,-1.01453063e-15 277,4.4771525 277,10 L277,176 C277,181.522847 272.522847,186 267,186 L10,186 C4.4771525,186 6.76353751e-16,181.522847 0,176 L0,10 C-6.76353751e-16,4.4771525 4.4771525,1.01453063e-15 10,0 Z" id="path-7"></path>
        <path d="M10,0 L60,0 C65.5228475,-1.01453063e-15 70,4.4771525 70,10 L70,50 C70,55.5228475 65.5228475,60 60,60 L10,60 C4.4771525,60 6.76353751e-16,55.5228475 0,50 L0,10 C-6.76353751e-16,4.4771525 4.4771525,-2.53818305e-15 10,-3.55271368e-15 Z" id="path-9"></path>
        <filter x="-80.0%" y="-76.7%" width="260.0%" height="286.7%" filterUnits="objectBoundingBox" id="filter-10">
            <feOffset dx="0" dy="10" in="SourceAlpha" result="shadowOffsetOuter1"></feOffset>
            <feGaussianBlur stdDeviation="17" in="shadowOffsetOuter1" result="shadowBlurOuter1"></feGaussianBlur>
            <feColorMatrix values="0 0 0 0 0.2   0 0 0 0 0.2   0 0 0 0 0.2  0 0 0 0.5 0" type="matrix" in="shadowBlurOuter1"></feColorMatrix>
        </filter>
        <path d="M10,0 L50,0 C55.5228475,-5.91980459e-15 60,4.4771525 60,10 L60,39 C60,44.5228475 55.5228475,49 50,49 L10,49 C4.4771525,49 6.76353751e-16,44.5228475 0,39 L0,10 C-6.76353751e-16,4.4771525 4.4771525,1.01453063e-15 10,0 Z" id="path-11"></path>
    </defs>
    <g id="Landing-page" stroke="none" stroke-width="1" fill="none" fill-rule="evenodd">
        <g id="1.11--Contact" transform="translate(-801.000000, -154.000000)">
            <g id="header" transform="translate(0.000000, 100.000000)">
                <g id="Group-9" transform="translate(835.000000, 78.000000)">
                    <g id="Group" transform="translate(0.000000, 156.000000)">
                        <g id="Rectangle">
                            <use fill="black" fill-opacity="1" filter="url(#filter-2)" xlink:href="#path-1"></use>
                            <use fill="#FFFFFF" fill-rule="evenodd" xlink:href="#path-1"></use>
                        </g>
                        <g id="comments">
                            <mask id="mask-4" fill="white">
                                <use xlink:href="#path-3"></use>
                            </mask>
                            <g id="Mask"></g>
                            <g id="user-circle" mask="url(#mask-4)" fill="#0B7A76" fill-opacity="0.27" fill-rule="nonzero">
                                <g transform="translate(70.000000, 74.000000)" id="Shape">
                                    <path d="M51,0 C30.7511588,0.0384395931 12.4354082,12.020461 4.30302767,30.5487957 C-3.82935286,49.0771303 -0.243868358,70.6556757 13.4444096,85.5644354 C23.1176865,96.0410339 36.7340419,102 51,102 C65.2659581,102 78.8823135,96.0410339 88.5555904,85.5644354 C102.243868,70.6556757 105.829353,49.0771303 97.6969723,30.5487957 C89.5645918,12.020461 71.2488412,0.0384395931 51,0 Z M51,91.8949783 C40.4152765,91.8789052 30.2494636,87.7611203 22.641697,80.408106 C27.365695,68.917645 38.5673502,61.4154695 51,61.4154695 C63.4326498,61.4154695 74.634305,68.917645 79.358303,80.408106 C71.7505364,87.7611203 61.5847235,91.8789052 51,91.8949783 Z M40.7807917,40.8422126 C40.7807917,35.2030798 45.3560871,30.6316594 51,30.6316594 C56.6439129,30.6316594 61.2192083,35.2030798 61.2192083,40.8422126 C61.2192083,46.4813454 56.6439129,51.0527657 51,51.0527657 C45.3560871,51.0527657 40.7807917,46.4813454 40.7807917,40.8422126 Z M86.3073646,71.473872 C81.7420931,63.6717791 74.7157266,57.60298 66.3288124,54.2180372 C73.5753976,46.0081412 73.0541776,33.5494009 65.1471363,25.9723939 C57.240095,18.395387 44.759905,18.395387 36.8528637,25.9723939 C28.9458224,33.5494009 28.4246024,46.0081412 35.6711876,54.2180372 C27.2842734,57.60298 20.2579069,63.6717791 15.6926354,71.473872 C12.0543099,65.2816925 10.1319557,58.2331563 10.1231669,51.0527657 C10.1231669,28.4962346 28.4243484,10.2105531 51,10.2105531 C73.5756516,10.2105531 91.8768331,28.4962346 91.8768331,51.0527657 C91.8680443,58.2331563 89.9456901,65.2816925 86.3073646,71.473872 Z"></path>
                                </g>
                            </g>
                            <path d="M37.5,23 L203.5,23 C205.985281,23 208,25.0147186 208,27.5 L208,27.5 C208,29.9852814 205.985281,32 203.5,32 L37.5,32 C35.0147186,32 33,29.9852814 33,27.5 L33,27.5 C33,25.0147186 35.0147186,23 37.5,23 Z" id="Rectangle-7-Copy-3" fill="#E1E8EE" mask="url(#mask-4)"></path>
                            <rect id="Rectangle-7-Copy-2" fill="#E1E8EE" mask="url(#mask-4)" x="33" y="42" width="175" height="9" rx="4.5"></rect>
                        </g>
                    </g>
                    <g id="Group" transform="translate(140.000000, 7.000000)">
                        <g id="Rectangle">
                            <use fill="black" fill-opacity="1" filter="url(#filter-6)" xlink:href="#path-5"></use>
                            <use fill="#FFFFFF" fill-rule="evenodd" xlink:href="#path-5"></use>
                        </g>
                        <g id="comments">
                            <mask id="mask-8" fill="white">
                                <use xlink:href="#path-7"></use>
                            </mask>
                            <g id="Mask"></g>
                            <g mask="url(#mask-8)" fill="#0B7A76" fill-opacity="0.27" fill-rule="nonzero" id="Shape">
                                <g transform="translate(83.663900, 15.333333)">
                                    <path d="M183.233778,169.429586 C195.701449,152.734676 199.911428,131.289717 194.679432,111.127251 C189.447436,90.9647856 175.33883,74.2635493 156.322414,65.721659 C150.720598,33.5252855 125.736246,8.16457123 93.6002747,2.05467959 C61.4643038,-4.05521205 28.9010794,10.3641972 11.8517042,38.2539847 C-5.19767106,66.1437722 -3.16566139,101.668075 16.9529768,127.436215 L3.30086141,140.976134 C0.514017167,143.797546 -0.299729133,148.01692 1.23831161,151.670707 C2.74499047,155.334585 6.30921911,157.734088 10.2742441,157.753859 L66.1595222,157.753859 C77.5182944,181.675702 101.630355,196.944919 128.134233,197 L187.064227,197 C191.029252,196.980228 194.593481,194.580726 196.10016,190.916848 C197.638201,187.263061 196.824454,183.043687 194.03761,180.222275 L183.233778,169.429586 Z M59.3825728,128.319254 C59.3960642,131.604895 59.658727,134.884793 60.1683061,138.130789 L33.9444585,138.130789 L37.3820415,134.794867 C39.2414071,132.952588 40.2872738,130.4448 40.2872738,127.828677 C40.2872738,125.212553 39.2414071,122.704765 37.3820415,120.862487 C26.2625952,109.876371 20.0331592,94.8845725 20.0959098,79.2615775 C20.0959098,46.7490099 46.479767,20.3923663 79.0259043,20.3923663 C104.031361,20.2422526 126.351855,36.028073 134.518316,59.6385071 C132.357549,59.6385071 130.294999,59.6385071 128.134233,59.6385071 C90.1637395,59.6385071 59.3825728,90.3879247 59.3825728,128.319254 Z M162.90293,177.37693 L163.394013,177.867506 L128.134233,177.867506 C104.708369,177.825712 84.5735614,161.260552 80.041424,138.300947 C75.5092865,115.341342 87.841808,92.3804712 109.498155,83.4579702 C131.154501,74.5354692 156.10439,82.1358387 169.091982,101.611763 C182.079574,121.087687 179.488431,147.016029 162.90293,163.542665 C161.052388,165.354173 159.99333,167.822758 159.95643,170.41074 C159.967326,173.032832 161.028409,175.541472 162.90293,177.37693 Z"></path>
                                </g>
                            </g>
                        </g>
                    </g>
                    <g id="Group" transform="translate(27.000000, 0.000000)">
                        <g id="Rectangle">
                            <use fill="black" fill-opacity="1" filter="url(#filter-10)" xlink:href="#path-9"></use>
                            <use fill="#FFFFFF" fill-rule="evenodd" xlink:href="#path-9"></use>
                        </g>
                        <g id="comments" transform="translate(5.000000, 5.000000)">
                            <mask id="mask-12" fill="white">
                                <use xlink:href="#path-11"></use>
                            </mask>
                            <g id="Mask"></g>
                            <path d="M12,7 L43,7 C45.209139,7 47,8.790861 47,11 L47,11 C47,13.209139 45.209139,15 43,15 L12,15 C9.790861,15 8,13.209139 8,11 L8,11 C8,8.790861 9.790861,7 12,7 Z" id="Rectangle-7-Copy-3" fill="#E1E8EE"></path>
                            <path d="M12,35 L25,35 C27.209139,35 29,36.790861 29,39 L29,39 C29,41.209139 27.209139,43 25,43 L12,43 C9.790861,43 8,41.209139 8,39 L8,39 C8,36.790861 9.790861,35 12,35 Z" id="Rectangle-7-Copy-3" fill="#E1E8EE"></path>
                            <rect id="Rectangle-7-Copy-2" fill="#E1E8EE" x="8" y="21" width="46" height="8" rx="4"></rect>
                        </g>
                    </g>
                </g>
            </g>
        </g>
    </g>
</svg>
